public/images/icons/Fallback.svg

<?xml version="1.0" encoding="UTF-8" standalone="no"?>
<svg
   xmlns:dc="http://purl.org/dc/elements/1.1/"
   xmlns:cc="http://creativecommons.org/ns#"
   xmlns:rdf="http://www.w3.org/1999/02/22-rdf-syntax-ns#"
   xmlns:svg="http://www.w3.org/2000/svg"
   xmlns="http://www.w3.org/2000/svg"
   xmlns:sodipodi="http://sodipodi.sourceforge.net/DTD/sodipodi-0.dtd"
   xmlns:inkscape="http://www.inkscape.org/namespaces/inkscape"
   width="32"
   height="32"
   viewBox="0 0 32 32"
   fill="none"
   version="1.1"
   id="svg6"
   sodipodi:docname="Logo-unknown.svg"
   inkscape:version="0.92.4 (5da689c313, 2019-01-14)">
  <metadata
     id="metadata12">
    <rdf:RDF>
      <cc:Work
         rdf:about="">
        <dc:format>image/svg+xml</dc:format>
        <dc:type
           rdf:resource="http://purl.org/dc/dcmitype/StillImage" />
      </cc:Work>
    </rdf:RDF>
  </metadata>
  <defs
     id="defs10" />
  <sodipodi:namedview
     pagecolor="#ffffff"
     bordercolor="#666666"
     borderopacity="1"
     objecttolerance="10"
     gridtolerance="10"
     guidetolerance="10"
     inkscape:pageopacity="0"
     inkscape:pageshadow="2"
     inkscape:window-width="2560"
     inkscape:window-height="1356"
     id="namedview8"
     showgrid="false"
     inkscape:zoom="7.375"
     inkscape:cx="16"
     inkscape:cy="16"
     inkscape:window-x="1072"
     inkscape:window-y="370"
     inkscape:window-maximized="1"
     inkscape:current-layer="svg6" />
  <circle
     cx="16"
     cy="16"
     r="16"
     fill="#25212D"
     id="circle2"
     style="fill:#000000;fill-opacity:1" />
  <path
     d="M15 9.3335C11.8763 9.3335 9.33331 11.8765 9.33331 15.0002C9.33331 17.9241 11.5619 20.3387 14.4088 20.6356C15.2132 21.8578 16.5973 22.6668 18.1666 22.6668C20.6459 22.6668 22.6666 20.6461 22.6666 18.1668C22.6666 16.5975 21.8576 15.2134 20.6354 14.409C20.3385 11.5621 17.9239 9.3335 15 9.3335ZM15 10.3335C17.4605 10.3335 19.4633 12.225 19.6484 14.6369C19.6422 14.691 19.6448 14.7457 19.6562 14.799C19.6591 14.8662 19.6666 14.9322 19.6666 15.0002C19.6666 17.5834 17.5832 19.6668 15 19.6668C14.914 19.6668 14.8303 19.6584 14.7454 19.6538C14.7314 19.6526 14.7172 19.6519 14.7031 19.6519C12.2598 19.4986 10.3333 17.4831 10.3333 15.0002C10.3333 12.4169 12.4167 10.3335 15 10.3335ZM20.6224 15.6766C21.2667 16.3097 21.6666 17.189 21.6666 18.1668C21.6666 20.1056 20.1054 21.6668 18.1666 21.6668C17.1888 21.6668 16.3096 21.2669 15.6764 20.6226C18.2596 20.313 20.3128 18.2598 20.6224 15.6766Z"
     fill="#605E68"
     id="path4" />
</svg>

<svg xmlns="http://www.w3.org/2000/svg" width="32" height="32" fill="none"><circle cx="16" cy="16" r="16" fill="#000"/><path d="M15 9.334A5.674 5.674 0 009.333 15a5.676 5.676 0 005.076 5.636 4.496 4.496 0 003.758 2.03c2.479 0 4.5-2.02 4.5-4.5 0-1.569-.81-2.953-2.032-3.757A5.676 5.676 0 0015 9.334zm0 1a4.656 4.656 0 014.648 4.303.502.502 0 00.008.162c.003.067.01.133.01.201A4.66 4.66 0 0115 19.667c-.086 0-.17-.009-.255-.013A4.655 4.655 0 0110.333 15 4.66 4.66 0 0115 10.334zm5.622 5.343a3.476 3.476 0 011.045 2.49c0 1.939-1.562 3.5-3.5 3.5-.978 0-1.857-.4-2.49-1.044a5.675 5.675 0 004.945-4.946z" fill="#605E68"/></svg>
